X: 118
T: Huntington's Maggot
Z: 2013 John Chambers <jc:trillian.mit.edu>
M: C|
L: 1/8
K: Dm
|: "Dm"f4 "Gm"(g3f/g/) | "A"a4 "Dm"d2f2 | "Gm"e2(fe) "A"d2^c2 | "Dm"d4 "A"A2e2 |
"Dm"f4 "Gm"(g3f/g/) | "A"a4 "Dm"d2f2 | "Gm"e2(fe) "A"d2^c2 | "Dm"d8 :|
|: "D"a4 b3c' |  ^f6 g2 | a2b2 c'2a2 | "Gm"b3c' b2a2 |
"Dm"g3a "D"a3g | "Gm"g6 d2 | "Edim"e6 (f/g/a) | "A"^c6 d2 |
e2f2 g2(fe) | "Dm"a3b a2g2 | "Gm"f3e "A"e3d | "Dm"d6 a2 :|
|: "Gm"g2 f2 f2(ed) | "A"e4 A2e2 | "Dm"f3g "Gm"(g3f/g/) | "A"a6 a2 :|
|: "F"a3g a2b2 | "C"gfga g2a2 | "Dm"f3g "Gm"g3f | "A"e6 ef |
"Gm"g2f2 e2d2 |"A"ed ^c=B A2a2 | "Gm"f3e "A"e3d | "Dm"d8 :|

